assets/images/members/kassem-kalach/kassem-kalach.svg

<svg viewBox="0 0 227 42" fill="none" 
  xmlns="http://www.w3.org/2000/svg">
  <path d="M22.0705 33.2261C28.8745 33.2261 34.3902 27.7103 34.3902 20.9063C34.3902 14.1023 28.8745 8.58655 22.0705 8.58655C15.2665 8.58655 9.75073 14.1023 9.75073 20.9063C9.75073 27.7103 15.2665 33.2261 22.0705 33.2261Z" stroke="#0000E0" stroke-width="2.24531" stroke-miterlimit="10"/>
  <path d="M22.0706 38.3298C31.6933 38.3298 39.4941 30.529 39.4941 20.9063C39.4941 11.2836 31.6933 3.48279 22.0706 3.48279C12.4479 3.48279 4.64709 11.2836 4.64709 20.9063C4.64709 30.529 12.4479 38.3298 22.0706 38.3298Z" stroke="#0000E0" stroke-width="2.24531" stroke-miterlimit="10"/>
  <path d="M17.9119 24.1539C17.7851 23.4885 17.6637 22.8548 17.5369 22.1868C17.2175 22.1631 16.8795 22.1499 16.5838 22.4694C16.2511 22.8284 15.8603 23.1347 15.4986 23.4674C15.3164 23.6337 15.1263 23.6496 14.9389 23.4964C14.7699 23.3592 14.7593 23.0555 14.9415 22.8892C15.4748 22.3954 16.0188 21.9123 16.5706 21.4396C16.6604 21.3631 16.8108 21.3367 16.9376 21.3261C17.1726 21.3076 17.4076 21.3208 17.6346 21.3208C17.7798 20.9063 17.9198 20.5102 18.065 20.0904C17.727 19.9188 17.3653 19.7604 17.03 19.5544C16.8584 19.4488 16.6841 19.2825 16.6023 19.1029C16.2986 18.4376 16.0319 17.7564 15.7494 17.0831C15.6333 16.8085 15.7045 16.563 15.9369 16.4626C16.1508 16.3702 16.3514 16.4864 16.4782 16.7742C16.729 17.3498 16.9745 17.928 17.2386 18.4983C17.2914 18.6145 17.3996 18.728 17.5132 18.7914C17.8247 18.9657 18.1469 19.1214 18.4769 19.2614C18.5614 19.2957 18.7277 19.2798 18.7832 19.2191C19.0921 18.8891 19.4591 18.8099 19.9 18.8125C21.0327 18.8204 22.1681 18.7782 23.3008 18.7729C23.8288 18.7703 24.3569 18.8046 24.885 18.831C24.9615 18.8336 25.046 18.8732 25.112 18.9181C25.2968 19.0449 25.4738 19.1848 25.6691 19.33C26.0573 19.1399 26.4639 18.9472 26.8599 18.7359C26.9471 18.6884 27.0157 18.5775 27.0579 18.4798C27.3141 17.9148 27.557 17.3471 27.8078 16.7821C27.9451 16.4732 28.1484 16.3623 28.3728 16.4653C28.6025 16.5682 28.6685 16.7979 28.5444 17.0937C28.2619 17.7669 27.9873 18.4481 27.6811 19.1109C27.6019 19.2825 27.4329 19.4409 27.2639 19.5412C26.9233 19.7472 26.5536 19.9109 26.2157 20.0825C26.3715 20.5023 26.5167 20.8957 26.6698 21.3076C26.7121 21.3103 26.7781 21.3261 26.8414 21.3182C27.3853 21.2284 27.8025 21.437 28.1748 21.8225C28.5207 22.1816 28.9088 22.5037 29.2732 22.8469C29.5002 23.0608 29.5267 23.2852 29.363 23.4674C29.2019 23.6469 28.9722 23.6443 28.7398 23.4384C28.4072 23.1453 28.0613 22.8601 27.7656 22.5301C27.4883 22.2238 27.1741 22.1156 26.7966 22.1842C26.6751 22.8337 26.551 23.4859 26.4216 24.1697C26.6989 24.3361 27.0342 24.5103 27.3325 24.7348C27.4936 24.8536 27.6467 25.041 27.7022 25.2285C27.9081 25.9097 28.0745 26.6041 28.2514 27.2932C28.3227 27.5705 28.2197 27.787 28.0005 27.8424C27.7259 27.9137 27.5543 27.7949 27.4751 27.486C27.3246 26.8972 27.1768 26.3058 27.0183 25.717C26.9972 25.6325 26.947 25.5321 26.8784 25.4899C26.5853 25.3104 26.2791 25.1493 25.9754 24.9803C24.1668 28.1593 20.1139 28.1223 18.3449 24.9698C18.3264 24.9724 18.3079 24.9724 18.2921 24.9803C17.9673 25.1678 17.5211 25.2839 17.3495 25.5665C17.1013 25.9757 17.0538 26.5038 16.9217 26.9817C16.8769 27.1454 16.8425 27.3091 16.8029 27.4728C16.729 27.7764 16.5389 27.9111 16.2828 27.8451C16.0557 27.7843 15.9527 27.5599 16.0293 27.2695C16.1824 26.6701 16.3699 26.0787 16.4834 25.4714C16.5679 25.0252 16.8003 24.7506 17.191 24.5579C17.4577 24.4364 17.7006 24.278 17.9119 24.1539Z" fill="#E00000"/>
  <path d="M18.976 17.9174C18.8836 16.9062 19.4011 16.1854 20.1219 15.5596C19.9978 15.3326 19.879 15.1108 19.7575 14.889C19.5014 14.4164 19.1238 14.1022 18.5879 13.9965C18.506 13.9807 18.4268 13.949 18.3476 13.9226C18.1654 13.8593 18.1205 13.7035 18.1812 13.5609C18.2261 13.4606 18.3687 13.3312 18.4638 13.3338C19.1582 13.3523 19.7047 13.6797 20.106 14.2342C20.3252 14.5378 20.5021 14.8705 20.7107 15.2164C21.6559 14.7702 22.617 14.7649 23.5781 15.2005C23.7523 14.9048 23.9134 14.6197 24.0824 14.3398C24.4283 13.7721 24.959 13.479 25.5847 13.3312C25.6745 13.3101 25.7801 13.3021 25.8646 13.3285C25.9544 13.3576 26.0758 13.4262 26.0917 13.4975C26.1154 13.5979 26.0758 13.7325 26.023 13.8276C25.9913 13.8883 25.8857 13.9253 25.8065 13.9437C25.091 14.0942 24.6395 14.5484 24.3464 15.1926C24.291 15.3114 24.2197 15.4223 24.1774 15.4936C24.4679 15.8685 24.7741 16.2091 25.0144 16.592C25.2573 16.9775 25.3656 17.4184 25.3048 17.9148C23.2031 17.9174 21.1014 17.9174 18.976 17.9174Z" fill="#E00000"/>
  <path d="M44.1383 20.5974V22.6278C39.8452 22.2898 35.5546 21.9518 31.2615 21.6139C35.552 21.2759 39.8452 20.938 44.1383 20.5974Z" fill="#0000E0"/>
  <path d="M0 20.5974V22.6278C4.29317 22.2898 8.58369 21.9518 12.8769 21.6139C8.58369 21.2759 4.29317 20.938 0 20.5974Z" fill="#0000E0"/>
  <path d="M20.8744 0.0794067H22.9048C22.5668 4.37257 22.2289 8.6631 21.8909 12.9563C21.5503 8.66574 21.2124 4.37257 20.8744 0.0794067Z" fill="#0000E0"/>
  <path d="M20.8744 41.7305H22.9048C22.5668 37.4373 22.2289 33.1468 21.8909 28.8536C21.5503 33.1468 21.2124 37.44 20.8744 41.7305Z" fill="#0000E0"/>
  <path d="M95.0518 29.5381L101.479 15.0479H103.753L95.2109 34.1445C94.7346 35.2487 94.2047 36.1259 93.6201 36.7754C93.0572 37.4249 92.4398 37.8798 91.7686 38.1396C91.0974 38.4211 90.3501 38.5615 89.5273 38.5615C88.7263 38.5615 87.9578 38.4317 87.2217 38.1719C86.5072 37.9121 85.8897 37.5226 85.3701 37.0029L86.4424 35.2812C86.8754 35.6926 87.3409 36.0071 87.8389 36.2236C88.3585 36.4617 88.9327 36.5811 89.5605 36.5811C90.3182 36.581 90.9676 36.3636 91.5088 35.9307C92.0717 35.5193 92.6027 34.7835 93.1006 33.7227L93.8359 32.0547L86.2148 15.0479H88.6182L95.0518 29.5381ZM114.503 14.8857C116.127 14.8858 117.577 15.2533 118.854 15.9893C120.154 16.7038 121.172 17.7222 121.908 19.043C122.644 20.3419 123.012 21.8465 123.012 23.5566C123.012 25.2886 122.644 26.8045 121.908 28.1035C121.172 29.4026 120.154 30.4211 118.854 31.1572C117.577 31.8932 116.127 32.2607 114.503 32.2607C113.031 32.2607 111.699 31.9251 110.508 31.2539C109.505 30.6704 108.672 29.879 108.007 28.8809V38.3994H105.701V15.0479H107.91V18.3945C108.572 17.3173 109.427 16.4834 110.476 15.8926C111.666 15.2214 113.009 14.8857 114.503 14.8857ZM63.9189 9.16895C65.5645 9.16895 67.1128 9.45072 68.5635 10.0137C70.0141 10.555 71.2374 11.3782 72.2334 12.4824L70.707 14.0088C69.7762 13.0563 68.7477 12.3743 67.6221 11.9629C66.4963 11.5299 65.2834 11.3125 63.9844 11.3125C62.6204 11.3125 61.3537 11.5511 60.1846 12.0273C59.0154 12.482 57.9969 13.1427 57.1309 14.0088C56.265 14.8531 55.5829 15.8488 55.085 16.9961C54.6086 18.122 54.3711 19.3674 54.3711 20.7314C54.3711 22.0955 54.6086 23.3515 55.085 24.499C55.5829 25.6247 56.265 26.6204 57.1309 27.4863C57.9969 28.3308 59.0154 28.9914 60.1846 29.4678C61.3537 29.9224 62.6204 30.1504 63.9844 30.1504C65.2834 30.1504 66.4963 29.933 67.6221 29.5C68.7477 29.0669 69.7762 28.3744 70.707 27.4219L72.2334 28.9482C71.2374 30.0525 70.0142 30.8863 68.5635 31.4492C67.1128 32.0122 65.5539 32.2939 63.8867 32.2939C62.1762 32.2939 60.5952 32.0122 59.1445 31.4492C57.6942 30.8647 56.4387 30.0527 55.3779 29.0137C54.3171 27.9745 53.4832 26.7509 52.877 25.3438C52.2924 23.9364 52 22.3986 52 20.7314C52 19.0643 52.2924 17.5265 52.877 16.1191C53.4832 14.712 54.3171 13.4884 55.3779 12.4492C56.4604 11.4101 57.7273 10.6088 59.1777 10.0459C60.6282 9.46144 62.2087 9.16896 63.9189 9.16895ZM129.759 15.0479H134.955V16.9639H129.759V27.1621C129.759 28.158 130.008 28.9265 130.506 29.4678C131.025 30.009 131.761 30.2802 132.714 30.2803C133.731 30.2803 134.576 29.9877 135.247 29.4033L136.06 31.0596C135.605 31.4709 135.053 31.7739 134.403 31.9688C133.775 32.1636 133.125 32.2607 132.454 32.2607C130.852 32.2607 129.618 31.8279 128.752 30.9619C127.886 30.0958 127.453 28.8726 127.453 27.292V16.9639H124.4V15.0479H127.453V11.2803H129.759V15.0479ZM181.67 24.6934C181.67 26.512 182.113 27.8873 183.001 28.8184C183.91 29.7277 185.177 30.1825 186.801 30.1826C187.992 30.1826 189.021 29.9441 189.887 29.4678C190.774 28.9698 191.446 28.2552 191.9 27.3242C192.377 26.3933 192.614 25.2784 192.614 23.9795V15.0479H194.921V32.0986H192.712V28.9795C192.181 29.9009 191.457 30.6485 190.536 31.2217C189.41 31.9145 188.09 32.2607 186.574 32.2607C185.124 32.2607 183.857 31.9904 182.774 31.4492C181.692 30.9079 180.846 30.0962 180.24 29.0137C179.656 27.9311 179.364 26.577 179.364 24.9531V15.0479H181.67V24.6934ZM84.4775 17.126H84.2168C84.1304 17.1044 84.0435 17.0938 83.957 17.0938C82.1602 17.0938 80.7529 17.646 79.7354 18.75C78.7177 19.8326 78.209 21.3809 78.209 23.3945V32.0986H75.9033V15.0479H78.1113V18.3389C78.5991 17.3044 79.3235 16.4993 80.2871 15.9248C81.413 15.2319 82.8103 14.8857 84.4775 14.8857V17.126ZM141.913 32.0986H139.607V15.0479H141.913V32.0986ZM168.985 14.8857C170.371 14.8857 171.573 15.156 172.591 15.6973C173.63 16.2169 174.431 17.0181 174.994 18.1006C175.579 19.1832 175.871 20.5478 175.871 22.1934V32.0986H173.565V22.4199C173.565 20.623 173.132 19.2697 172.266 18.3604C171.421 17.4295 170.22 16.9639 168.661 16.9639C167.492 16.9639 166.474 17.2131 165.608 17.7109C164.764 18.1873 164.103 18.8912 163.627 19.8223C163.172 20.7316 162.944 21.8357 162.944 23.1348V32.0986H160.639V22.4199C160.639 20.623 160.206 19.2697 159.34 18.3604C158.474 17.4293 157.261 16.9639 155.702 16.9639C154.555 16.9639 153.548 17.2129 152.682 17.7109C151.816 18.1873 151.144 18.8913 150.668 19.8223C150.213 20.7316 149.986 21.8358 149.986 23.1348V32.0986H147.68V15.0479H149.889V18.127C150.404 17.2322 151.119 16.5087 152.032 15.957C153.201 15.2426 154.577 14.8857 156.157 14.8857C157.824 14.8858 159.242 15.308 160.411 16.1523C161.224 16.7247 161.838 17.5015 162.253 18.4824C162.766 17.5706 163.484 16.8046 164.406 16.1846C165.684 15.3185 167.21 14.8858 168.985 14.8857ZM220.055 14.8857C221.44 14.8858 222.642 15.1561 223.659 15.6973C224.698 16.2169 225.5 17.0181 226.062 18.1006C226.647 19.1832 226.939 20.5478 226.939 22.1934V32.0986H224.634V22.4199C224.634 20.623 224.201 19.2697 223.335 18.3604C222.491 17.4293 221.288 16.9639 219.729 16.9639C218.56 16.9639 217.543 17.213 216.677 17.7109C215.832 18.1873 215.172 18.8912 214.695 19.8223C214.241 20.7316 214.014 21.8358 214.014 23.1348V32.0986H211.708V22.4199C211.708 20.623 211.274 19.2697 210.408 18.3604C209.542 17.4296 208.33 16.964 206.771 16.9639C205.624 16.9639 204.617 17.2131 203.751 17.7109C202.885 18.1873 202.214 18.8912 201.737 19.8223C201.283 20.7316 201.055 21.8357 201.055 23.1348V32.0986H198.749V15.0479H200.957V18.1279C201.473 17.2328 202.187 16.5088 203.101 15.957C204.27 15.2425 205.645 14.8858 207.226 14.8857C208.893 14.8857 210.311 15.3079 211.48 16.1523C212.293 16.7245 212.907 17.501 213.322 18.4814C213.836 17.5701 214.553 16.8043 215.475 16.1846C216.752 15.3185 218.279 14.8857 220.055 14.8857ZM114.341 16.8994C113.128 16.8994 112.035 17.1804 111.061 17.7432C110.108 18.3061 109.35 19.0861 108.787 20.082C108.246 21.0779 107.975 22.236 107.975 23.5566C107.975 24.8774 108.246 26.0468 108.787 27.0645C109.35 28.0604 110.108 28.8404 111.061 29.4033C112.035 29.9445 113.128 30.2148 114.341 30.2148C115.553 30.2148 116.635 29.9444 117.588 29.4033C118.541 28.8404 119.298 28.0604 119.861 27.0645C120.424 26.0468 120.706 24.8774 120.706 23.5566C120.706 22.236 120.424 21.0779 119.861 20.082C119.298 19.0861 118.541 18.3061 117.588 17.7432C116.635 17.1804 115.553 16.8995 114.341 16.8994ZM140.776 8C141.253 8 141.654 8.15195 141.979 8.45508C142.303 8.75818 142.466 9.13717 142.466 9.5918C142.466 10.068 142.303 10.4683 141.979 10.793C141.675 11.1177 141.274 11.2803 140.776 11.2803C140.3 11.2802 139.9 11.1176 139.575 10.793C139.25 10.4682 139.088 10.0787 139.088 9.62402C139.088 9.16933 139.25 8.79043 139.575 8.4873C139.9 8.16264 140.3 8.00011 140.776 8Z" fill="black"/>
</svg>

<svg xmlns="http://www.w3.org/2000/svg" fill="none" viewBox="0 0 227 42"><path stroke="#0000e0" stroke-miterlimit="10" stroke-width="2.245" d="M22.07 33.226c6.805 0 12.32-5.516 12.32-12.32s-5.515-12.32-12.32-12.32c-6.803 0-12.32 5.516-12.32 12.32s5.517 12.32 12.32 12.32Z"/><path stroke="#0000e0" stroke-miterlimit="10" stroke-width="2.245" d="M22.07 38.33c9.623 0 17.424-7.801 17.424-17.424s-7.8-17.423-17.423-17.423-17.424 7.8-17.424 17.423 7.8 17.424 17.424 17.424Z"/><path fill="#e00000" d="m17.912 24.154-.375-1.967c-.32-.024-.657-.037-.953.282-.333.36-.724.666-1.085.998-.183.167-.373.183-.56.03-.17-.138-.18-.442.002-.608a57 57 0 0 1 1.63-1.45c.09-.076.24-.102.367-.113.235-.018.47-.005.697-.005.145-.415.285-.81.43-1.23-.338-.172-.7-.33-1.035-.537-.172-.105-.346-.271-.428-.451-.303-.665-.57-1.347-.853-2.02-.116-.274-.045-.52.188-.62.214-.093.414.023.541.311.251.576.496 1.154.76 1.724.053.116.162.23.275.293q.469.261.964.47c.084.035.25.019.306-.042.31-.33.676-.41 1.117-.407 1.133.008 2.268-.034 3.4-.04.529-.002 1.057.033 1.585.059a.46.46 0 0 1 .227.087c.185.127.362.267.557.412.388-.19.795-.383 1.19-.594.088-.048.157-.159.199-.256.256-.565.499-1.133.75-1.698.137-.309.34-.42.565-.317.23.103.296.333.171.629-.282.673-.557 1.354-.863 2.017a1.07 1.07 0 0 1-.417.43c-.34.206-.71.37-1.048.541.155.42.3.814.454 1.226.042.002.108.018.171.01.544-.09.961.119 1.334.505.346.359.734.68 1.098 1.024.227.214.254.438.09.62-.161.18-.39.177-.623-.029-.333-.293-.679-.578-.974-.908-.278-.306-.592-.414-.97-.346-.12.65-.245 1.302-.374 1.986.277.166.612.34.91.565.162.119.315.306.37.494.206.68.372 1.375.55 2.064.07.277-.032.494-.252.55-.274.07-.446-.048-.525-.357-.15-.589-.298-1.18-.457-1.769-.02-.084-.071-.185-.14-.227-.293-.18-.599-.34-.903-.51-1.808 3.18-5.861 3.142-7.63-.01-.019.002-.037.002-.053.01-.325.188-.77.304-.943.587-.248.409-.295.937-.427 1.415-.045.163-.08.327-.12.49-.073.304-.263.44-.52.373-.226-.06-.33-.285-.253-.575.153-.6.34-1.191.454-1.799.085-.446.317-.72.708-.913.267-.122.51-.28.72-.404"/><path fill="#e00000" d="M18.976 17.917c-.092-1.01.425-1.732 1.146-2.357l-.364-.671c-.257-.473-.634-.787-1.17-.893-.082-.015-.161-.047-.24-.073-.183-.064-.227-.22-.167-.362.045-.1.188-.23.283-.227.694.018 1.24.346 1.642.9.22.304.396.636.605.982.945-.446 1.906-.451 2.867-.015.174-.296.335-.581.504-.861.346-.568.877-.861 1.503-1.009a.56.56 0 0 1 .28-.002c.09.029.21.097.227.168.023.1-.016.236-.069.33-.032.061-.137.098-.216.117-.716.15-1.167.604-1.46 1.249-.056.118-.127.23-.17.3.29.375.597.716.837 1.099.243.386.352.826.29 1.323-2.1.002-4.203.002-6.328.002"/><path fill="#0000e0" d="M44.138 20.597v2.03l-12.876-1.013q6.436-.506 12.876-1.017M0 20.597v2.03l12.877-1.013Q6.439 21.108 0 20.597M20.874.08h2.03l-1.013 12.876Q21.38 6.52 20.874.08M20.874 41.73h2.03l-1.013-12.876z"/><path fill="#000" d="m95.052 29.538 6.427-14.49h2.274l-8.542 19.097q-.714 1.655-1.59 2.63-.846.975-1.852 1.365-1.008.422-2.242.422-1.201 0-2.305-.39a5 5 0 0 1-1.852-1.17l1.072-1.72q.65.616 1.397.942.78.357 1.722.357 1.136 0 1.948-.65.845-.618 1.592-2.208l.735-1.668-7.621-17.007h2.403zm19.451-14.652q2.436 0 4.351 1.103a7.67 7.67 0 0 1 3.054 3.054q1.104 1.948 1.104 4.514 0 2.598-1.104 4.547a7.95 7.95 0 0 1-3.054 3.053q-1.915 1.104-4.351 1.104-2.208 0-3.995-1.007a7.5 7.5 0 0 1-2.501-2.373v9.518h-2.306V15.048h2.209v3.347q.993-1.617 2.566-2.502 1.785-1.007 4.027-1.007M63.919 9.169q2.468 0 4.645.845 2.175.812 3.67 2.468l-1.527 1.527q-1.396-1.43-3.085-2.046-1.69-.65-3.638-.65-2.046 0-3.8.714a8.75 8.75 0 0 0-3.053 1.982 9.3 9.3 0 0 0-2.046 2.987q-.714 1.689-.714 3.735t.714 3.768a9.8 9.8 0 0 0 2.046 2.987 9.4 9.4 0 0 0 3.054 1.982q1.753.681 3.8.682 1.947 0 3.637-.65t3.085-2.078l1.526 1.526q-1.494 1.656-3.67 2.501t-4.676.845q-2.566 0-4.742-.845-2.175-.876-3.767-2.435a11.4 11.4 0 0 1-2.501-3.67Q52 23.233 52 20.73q0-2.501.877-4.612a11.4 11.4 0 0 1 2.5-3.67 11.4 11.4 0 0 1 3.8-2.403q2.177-.877 4.742-.877m65.84 5.879h5.196v1.916h-5.196v10.198q0 1.494.747 2.306.779.812 2.208.812 1.526 0 2.533-.877l.813 1.657a4.25 4.25 0 0 1-1.657.909 6.5 6.5 0 0 1-1.949.292q-2.403 0-3.702-1.3-1.299-1.297-1.299-3.669V16.964H124.4v-1.916h3.053V11.28h2.306zm51.911 9.645q0 2.729 1.331 4.125 1.364 1.364 3.8 1.365 1.787 0 3.086-.715a4.82 4.82 0 0 0 2.013-2.144q.715-1.396.714-3.344v-8.932h2.307v17.05h-2.209V28.98a6.3 6.3 0 0 1-2.176 2.242q-1.689 1.038-3.962 1.039-2.175 0-3.8-.812a5.85 5.85 0 0 1-2.534-2.435q-.876-1.625-.876-4.06v-9.906h2.306zm-97.192-7.567h-.261a1 1 0 0 0-.26-.032q-2.695 0-4.222 1.656-1.526 1.624-1.526 4.645v8.704h-2.306V15.048h2.208v3.29a5.45 5.45 0 0 1 2.176-2.413q1.69-1.04 4.19-1.04zm57.435 14.973h-2.306V15.048h2.306zm27.072-17.213q2.079 0 3.606.811 1.558.78 2.403 2.404.877 1.624.877 4.092V32.1h-2.306v-9.68q0-2.695-1.299-4.059-1.267-1.395-3.605-1.396-1.754 0-3.053.747-1.267.714-1.981 2.111-.683 1.365-.683 3.313v8.964h-2.305v-9.68q0-2.695-1.299-4.059-1.3-1.395-3.638-1.396-1.72 0-3.02.747-1.3.714-2.014 2.111-.682 1.365-.682 3.313v8.964h-2.306V15.048h2.209v3.079a6 6 0 0 1 2.143-2.17q1.754-1.071 4.125-1.071 2.5 0 4.254 1.266 1.22.86 1.842 2.33.77-1.367 2.153-2.297 1.917-1.3 4.579-1.3m51.07 0q2.078 0 3.604.811 1.56.78 2.403 2.404.877 1.624.877 4.092V32.1h-2.305v-9.68q0-2.695-1.299-4.059-1.267-1.395-3.606-1.396-1.753 0-3.052.747-1.267.714-1.982 2.111-.681 1.365-.681 3.313v8.964h-2.306v-9.68q0-2.695-1.3-4.059-1.299-1.395-3.637-1.396-1.72 0-3.02.747-1.299.714-2.014 2.111-.681 1.365-.682 3.313v8.964h-2.306V15.048h2.208v3.08a6 6 0 0 1 2.144-2.171q1.754-1.072 4.125-1.071 2.5 0 4.254 1.266 1.22.858 1.842 2.33.77-1.368 2.153-2.297 1.916-1.3 4.58-1.3m-105.714 2.013q-1.82 0-3.28.844a6.2 6.2 0 0 0-2.274 2.339q-.812 1.494-.812 3.475 0 1.98.812 3.508a6.2 6.2 0 0 0 2.274 2.338q1.46.813 3.28.812 1.818 0 3.247-.812a6.2 6.2 0 0 0 2.273-2.338q.845-1.527.845-3.508t-.845-3.475a6.2 6.2 0 0 0-2.273-2.339q-1.43-.843-3.247-.844M140.776 8q.715 0 1.203.455.487.455.487 1.137 0 .714-.487 1.201-.456.487-1.203.487-.714 0-1.201-.487a1.6 1.6 0 0 1-.487-1.169q0-.682.487-1.137A1.63 1.63 0 0 1 140.776 8"/></svg>
